X:1
T:[ID 4-5rb]
T:[ID 4-5rb]
T:Bezeichnung standardisiert: Menuett Menuetto In dieser Quelle auch als: Menuet
T:Urheber unbekannt Datum in der hier transkribierten schriftlichen Quelle: 1792
C:Urheber unbekannt
C:Datum in der hier transkribierten schriftlichen Quelle: 1792
L:1/8
M:3/4
K:D
V:1 treble 
V:1
 d4 (3fga | c2 c2 c2 | d3 cdB | A2 A2 A2 | B2 B2 B2 | A2 A2 A2 | d2 f2 af | (e4 d2) :: g2 e2 cA | %9
 dcde d2 | g2 e2 cA | dcde dB | A2 A2 AB | B2 A2 f2 |"^1)" g2 d2 f2 af | e4 d2 :| %16

